X:1
T:No Voice but Thine
T:No Voice but Thine
T:John Robson Sweney
T:Frances Jane (Fanny) Crosby, 1891
T:Public Domain Courtesy of the Cyber Hymnal™
C:John Robson Sweney
Z:Public Domain
Z:Courtesy of the Cyber Hymnal™
%%score 1 ( 2 3 )
L:1/8
Q:1/4=100
M:4/4
K:Bb
V:1 treble 
V:2 bass 
V:3 bass 
V:1
 [DF]2 | [DF]3 [EG] [DF]>[B,D] [DF]>[DB] | [Fd]6 [DB]2 | [Ec]3 [DB] [Fd]>[Ec] [EG]>[EA] | %4
w: 1.~We|come a- gain, O gra- cious|Lord, A-|round Thy hal- lowed mer- cy|
w: 2.~We|come a- gain, for still we|need Re-|fresh- ing showers our hearts to|
w: 3.~Our|strength re- new, our hope in-|crease, And|may we now Thy bless- ings|
w: 4.~And|when this hour shall pass a-|way, Oh,|may Thy pre- sence come so|
 ([EG]4 [DF]2) [DF]2 | [DF]3 [EG] [DF]>[B,D] [DF]>[DB] | [Fd]6 [DB]2 | %7
w: seat, * To|feast up- on Thy liv- ing|Word, And|
w: cheer, * In|Thy dear name the grace we|plead, That|
w: share; * Keep|Thou Thine own in per- fect|peace, Con-|
w: near * That|from our hearts we all may|say, ’Twas|
 [Ec]3 [DB] [Fd]>[Ec] [EG]>[EA] | [DB]6 ||"^Refrain" [DB]2 | [CA]3 [DB] [Ec]>[EG] [EA]>[EG] | %11
w: lay our bur- dens at Thy|feet.|||
w: to Thy throne will bring us|near.|Shut|out the world, that we may|
w: trol our thoughts, di- rect our|prayer.|||
w: good for us to ga- ther|here.|||
 ([DF]4 [DB]2) [DB]2 | [Fd]3 [Fd] [=Ed]>[Ed] [Ec]>[EG] | [Ec]6 [EF]2 | %14
w: |||
w: see * With-|in our midst no one but|Thee; Our|
w: |||
w: |||
 [DF]3 [EG] [DF]>[B,D] [DF]>[DB] | [Fd]6 [DB]2 | [Ec]3 [DB] [Fd]>[Ec] [EG]>[EA] | [DB]6 |] %18
w: ||||
w: love in- spire through faith di-|vine, That|we may hear no voice but|Thine.|
w: ||||
w: ||||
V:2
 [B,,B,]2 | [B,,B,]3 [B,,B,] [B,,B,]>[B,,F,] [B,,F,]>[B,,F,] | [B,,B,]6 [B,,F,]2 | %3
 [F,A,]3 [F,B,] [F,B,]>[F,A,] [F,B,]>[F,C] | [B,,B,]6 [B,,B,]2 | %5
 [B,,B,]3 [B,,B,] [B,,B,]>[B,,F,] [B,,F,]>[B,,F,] | [B,,B,]6 [B,,F,]2 | %7
 [F,A,]3 [F,B,] [F,B,]>[F,A,] [F,B,]>F, | [B,,F,]6 || [B,,F,]2 | %10
 F,3 F, [F,A,]>[F,B,] [F,C]>[F,A,] | (B,4 F,2) [B,,F,]2 | [B,,B,]3 B, [G,B,]>[G,B,] [G,B,]>[G,B,] | %13
 [F,A,]6 [F,A,]2 | [B,,B,]3 [B,,B,] [B,,B,]>[B,,F,] [B,,F,]>[B,,F,] | [B,,B,]6 [B,,F,]2 | %16
 [F,A,]3 [F,B,] [F,B,]>[F,A,] [F,B,]>F, | [B,,F,]6 |] %18
V:3
 x2 | x8 | x8 | x8 | x8 | x8 | x8 | x15/2 F,/ | x6 || x2 | F,3 F, x4 | B,,6 x2 | x3 B, x4 | x8 | %14
 x8 | x8 | x15/2 F,/ | x6 |] %18

